packages/core/src/svgs/tokens/mono/ADP.svg

<svg width="24" height="24" viewBox="0 0 24 24" fill="none" xmlns="http://www.w3.org/2000/svg">
<path d="M13.0511 3.24881C12.9488 3.05957 12.7971 2.90152 12.6124 2.79135C12.4276 2.6812 12.2165 2.62305 12.0012 2.62305C11.7862 2.62305 11.575 2.6812 11.3901 2.79135C11.2054 2.90152 11.0537 3.05957 10.9513 3.24881L2.13975 20.097C2.00851 20.3408 1.97726 20.597 2.01475 20.8283C4.94571 21.6657 9.66391 21.297 12.0012 16.8724C14.0635 12.9541 15.2759 10.798 16.0321 9.44193L16.1696 9.20446L13.0511 3.25507V3.24881Z" fill="white"/>
<path d="M16.4204 9.6853L12.5957 16.872C13.08 18.234 13.9871 19.4053 15.1846 20.2149C16.382 21.0245 17.8071 21.4297 19.2513 21.3716C20.4075 21.3716 21.3011 21.1654 21.9761 20.8717C22.0261 20.6216 22.001 20.353 21.8698 20.0967L16.4204 9.6853Z" fill="white"/>
</svg>

<svg xmlns="http://www.w3.org/2000/svg" width="24" height="24" fill="none" viewBox="0 0 24 24">
    <path fill="#fff" d="M13.051 3.249a1.194 1.194 0 0 0-2.1 0L2.14 20.097c-.131.244-.163.5-.125.731 2.93.838 7.649.469 9.986-3.956 2.063-3.918 3.275-6.074 4.031-7.43l.138-.238-3.119-5.949zm3.369 6.436-3.824 7.187a6.775 6.775 0 0 0 6.655 4.5c1.156 0 2.05-.207 2.725-.5.05-.25.025-.519-.106-.775z"/>
</svg>
